Catalina-dark/actions/22/view-barcode-add.svg

<svg viewBox="0 0 22 22" xmlns="http://www.w3.org/2000/svg">
<defs>
<style id="current-color-scheme" type="text/css">.ColorScheme-Text {
        color:#dedede
      }</style>
</defs>
<path class="ColorScheme-Text" d="m3.8887 3c-0.49244 0-0.88867 0.35758-0.88867 0.80078v14.398c0 0.4432 0.39623 0.80078 0.88867 0.80078h14.223c0.49244 0 0.88867-0.35758 0.88867-0.80078v-14.398c0-0.4432-0.39623-0.80078-0.88867-0.80078h-14.223zm1.5137 2h0.24219c0.17783 0 0.32212 0.14446 0.32227 0.32227v11.355c0 0.17781-0.14432 0.32227-0.32227 0.32227h-0.24219c-0.1778 0-0.32226-0.14432-0.32226-0.32227v-11.355c0-0.17781 0.14446-0.32227 0.32226-0.32227zm1.6113 0h0.88477c0.1778 0 0.32224 0.14446 0.32226 0.32227v11.355c0 0.17781-0.14446 0.32227-0.32226 0.32227h-0.88477c-0.17797 0-0.32226-0.14432-0.32226-0.32227v-11.355c0-0.17781 0.14431-0.32227 0.32226-0.32227zm2.0938 0h0.88672c0.17795 0 0.3221 0.14446 0.32227 0.32227v11.355c0 0.17781-0.14432 0.32227-0.32227 0.32227h-0.88672c-0.17797 0-0.32226-0.14432-0.32226-0.32227v-11.355c0-0.17781 0.14431-0.32227 0.32226-0.32227zm2.0938 0h0.0801c0.1778 0 0.32227 0.14446 0.32227 0.32227v11.355c0 0.17781-0.14444 0.32227-0.32227 0.32227h-0.0801c-0.17795 0-0.32227-0.14432-0.32227-0.32227v-11.355c1e-5 -0.17781 0.14432-0.32227 0.32227-0.32227zm1.2891 0h2.8184c0.17781 0 0.32227 0.14446 0.32227 0.32227v7.082c7.7e-4 0.43027-0.41211 0.41211-0.41211 0.41211h-0.93359s-0.29578-4e-3 -0.30274 0.3164v3.5312c7e-3 0.3329-0.32617 0.33594-0.32617 0.33594h-1.166c-0.17777 0-0.32226-0.14432-0.32226-0.32227v-11.355c0-0.17781 0.14446-0.32227 0.32226-0.32227zm4.0274 0h0.0801c0.1778 0 0.32226 0.14446 0.32226 0.32227v7.1543c0 0.1778-0.14444 0.32227-0.32226 0.32227h-0.0801c-0.17795 0-0.32227-0.14432-0.32227-0.32227v-7.1543c0-0.17781 0.14432-0.32227 0.32227-0.32227zm-0.51758 8.3613h0.69922v1.4004h1.4004v0.70117h-1.4004v1.3984h-0.69922v-1.3984h-1.4004v-0.70117h1.4004v-1.4004z" fill="currentColor"/>
</svg>

<svg xmlns="http://www.w3.org/2000/svg" viewBox="0 0 22 22">
  <defs id="defs3051">
    <style type="text/css" id="current-color-scheme">
      .ColorScheme-Text {
        color:#f2f2f2
      }
      </style>
  </defs>
 <path 
     style="fill:currentColor;fill-opacity:1;stroke:none"      
	 class="ColorScheme-Text"
        d="M 3.88867,3 C 3.39623,3 3,3.35758 3,3.80078 L 3,18.19922 C 3,18.64242 3.39623,19 3.88867,19 l 14.22266,0 C 18.60377,19 19,18.64242 19,18.19922 L 19,3.80078 C 19,3.35758 18.60377,3 18.11133,3 L 3.88867,3 Z M 5.40234,5 5.64453,5 C 5.82236,5 5.96665,5.14446 5.9668,5.32227 l 0,11.35546 C 5.9668,16.85554 5.82248,17 5.64453,17 L 5.40234,17 C 5.22454,17 5.08008,16.85568 5.08008,16.67773 l 0,-11.35546 C 5.08008,5.14446 5.22454,5 5.40234,5 Z m 1.61133,0 0.88477,0 c 0.1778,0 0.32224,0.14446 0.32226,0.32227 l 0,11.35546 C 8.2207,16.85554 8.07624,17 7.89844,17 L 7.01367,17 C 6.8357,17 6.69141,16.85568 6.69141,16.67773 l 0,-11.35546 C 6.69141,5.14446 6.83572,5 7.01367,5 Z m 2.09375,0 0.88672,0 c 0.17795,0 0.3221,0.14446 0.32227,0.32227 l 0,11.35546 C 10.31641,16.85554 10.17209,17 9.99414,17 L 9.10742,17 C 8.92945,17 8.78516,16.85568 8.78516,16.67773 l 0,-11.35546 C 8.78516,5.14446 8.92947,5 9.10742,5 Z m 2.09375,0 0.0801,0 c 0.1778,0 0.32227,0.14446 0.32227,0.32227 l 0,11.35546 C 11.60354,16.85554 11.4591,17 11.28127,17 l -0.0801,0 C 11.02322,17 10.8789,16.85568 10.8789,16.67773 l 0,-11.35546 C 10.87891,5.14446 11.02322,5 11.20117,5 Z m 1.28906,0 2.81836,0 c 0.17781,0 0.32227,0.14446 0.32227,0.32227 l 0,7.08203 c 7.7e-4,0.43027 -0.41211,0.41211 -0.41211,0.41211 l -0.93359,0 c 0,0 -0.29578,-0.004 -0.30274,0.3164 l 0,3.53125 C 13.98942,16.99696 13.65625,17 13.65625,17 l -1.16602,0 c -0.17777,0 -0.32226,-0.14432 -0.32226,-0.32227 l 0,-11.35546 C 12.16797,5.14446 12.31243,5 12.49023,5 Z m 4.02735,0 0.0801,0 c 0.1778,0 0.32226,0.14446 0.32226,0.32227 l 0,7.15429 c 0,0.1778 -0.14444,0.32227 -0.32226,0.32227 l -0.0801,0 c -0.17795,0 -0.32227,-0.14432 -0.32227,-0.32227 l 0,-7.15429 C 16.19531,5.14446 16.33963,5 16.51758,5 Z M 16,13.36133 l 0.69922,0 0,1.40039 1.40039,0 0,0.70117 -1.40039,0 0,1.39844 -0.69922,0 0,-1.39844 -1.40039,0 0,-0.70117 1.40039,0 0,-1.40039 z"
     />
</svg>
